static/images/mobile/copyright/wikipedia-wordmark-he.svg

<?xml version="1.0" encoding="UTF-8"?>
<svg width="120px" height="28px" viewBox="0 0 120 28" version="1.1" xmlns="http://www.w3.org/2000/svg" xmlns:xlink="http://www.w3.org/1999/xlink">
    <title>wikipedia-wordmark-he</title>
    <g id="Page-1" stroke="none" stroke-width="1" fill="none" fill-rule="evenodd">
        <path d="M82.41671,6.87722928 L83.5720845,24.2261856 C83.0708111,25.5466097 82.3311271,26.7142091 81.3530326,27.7289841 L79.867551,11.1319391 C80.4055027,9.56699114 81.2552224,8.14875455 82.41671,6.87722928 Z M113.795209,0.0366796838 L118.453384,3.35609091 C119.174729,3.85736509 119.639328,4.5603701 119.847179,5.46510596 C119.969437,5.96638014 120.018339,6.80387361 119.993887,7.97758641 L119.847179,18.4126337 C119.101381,19.598573 118.239435,20.6255708 117.261339,21.493627 L116.986241,9.09628338 C116.961833,7.61691397 116.39943,6.51655684 115.299032,5.79521199 L111.502807,3.28273155 L113.795209,0.0366796838 Z M3.72287329,0.238406816 C3.80845699,0.861946604 3.86347503,1.20427919 3.88792741,1.26540458 C4.01018931,1.68110024 4.23026037,1.88894807 4.54814058,1.88894807 L12.0305657,1.88894807 C13.8889459,1.88894807 15.2766179,2.12124532 16.1935819,2.58583981 C17.4651049,3.24605186 18.1008664,4.4381045 18.1008664,6.1619977 L18.1008664,8.52775941 L17.9174736,17.8807894 C17.2694859,19.2379007 16.3280695,20.4177304 15.0932247,21.4202788 L15.2582789,9.27967067 C15.2827319,6.55323653 14.4696905,5.19001946 12.8191544,5.19001946 L0,5.19001946 C0.978095227,3.34386064 2.21905299,1.69332309 3.72287329,0.238406816 Z M5.07998041,7.18899546 C5.03107416,8.26490318 5.00662104,9.29190094 5.00662104,10.2699887 L4.91492183,17.5873631 C4.23025592,19.0055997 3.28272673,20.2465586 2.07233425,21.3102397 L2.07320369,21.1332398 C2.0791449,20.2690659 2.11553477,16.7457947 2.1823733,10.5634262 C2.98930112,9.51197162 3.95516978,8.38716137 5.07998041,7.18899546 Z M35.8532859,0 C35.9144187,0.684665174 35.9938892,1.13703311 36.0916972,1.35710379 C36.2384114,1.71166665 36.5073876,1.88894807 36.8986257,1.88894807 L42.913908,1.88894807 C43.5252176,1.15537666 44.1976577,0.537953858 44.9312283,0.0366796838 L44.9312283,1.88894807 L48.3239945,1.88894807 L46.8201742,5.19001946 L44.784514,5.19001946 L44.784514,18.375954 C44.0998481,19.1951114 43.1645451,20.1059606 41.978605,21.1085015 L41.978605,5.19001946 L31.8736637,5.19001946 C33.181865,3.24605557 34.5084057,1.51604909 35.8532859,0 Z M81.8848713,0.128378893 L82.0315856,1.26540458 C82.104945,1.68110024 82.3189032,1.88894807 82.67346,1.88894807 L94.6490073,1.88894807 C95.5659713,1.88894807 96.2812018,2.2801832 96.7946987,3.06265344 C97.222621,3.72287292 97.4365821,4.50535058 97.4365821,5.41008644 C97.4365821,9.42027241 96.1833966,12.9169613 93.6770258,15.9001533 C91.8675511,18.0519613 89.0799811,19.6291395 85.314316,20.6316878 C85.7300065,19.7391711 86.2924109,18.449306 87.0015292,16.7620925 C88.7376475,16.4564433 90.3759563,15.7412117 91.9164555,14.6163977 C93.5669908,13.4182318 94.3922585,11.3642326 94.3922585,8.45440004 C94.3922585,6.27814632 93.7687228,5.19001946 92.5216513,5.19001946 L78.0519623,5.19001946 C79.0056044,3.19714933 80.2832408,1.5099358 81.8848713,0.128378893 Z M55.3295982,0.238406816 C57.1268478,0.751907552 58.8690789,1.5404985 60.5562918,2.60417965 C62.1946005,3.63117371 63.3683145,4.64594491 64.0774335,5.64849325 C64.3586354,7.26235483 64.4992365,8.92511523 64.4992365,10.6367745 C64.4992365,12.0305654 64.3830878,13.9195135 64.1507906,16.3036187 C63.9429458,16.8660183 63.2705057,18.1069734 62.1334703,20.0264842 L49.0942444,20.0264842 C49.8278151,18.9261307 50.4819161,17.8257774 51.0565474,16.7254239 L61.7483448,16.7254239 C61.9561904,15.5639302 62.0601132,14.4207802 62.0601132,13.2959736 C62.0601132,11.3275566 61.7850241,9.35302633 61.2348459,7.37238275 C59.718799,5.96637271 57.4630679,4.74987068 54.4676523,3.72287662 C53.5873674,4.48089375 53.1472249,5.43453585 53.1472249,6.58380293 C53.1472249,7.31737435 53.4467663,7.95924656 54.0458493,8.50941956 C54.3270513,8.76616993 54.895569,9.13906893 55.7514023,9.62811654 L53.9358136,12.3606751 C52.6398381,11.5659709 51.8390229,11.028017 51.5333677,10.7468135 C50.7142134,10.0132421 50.3046362,9.20020173 50.3046362,8.30769243 C50.3046362,6.9016824 50.9342848,5.29393781 52.193582,3.48445868 C53.2817126,1.93173733 54.3270513,0.849720042 55.3295982,0.238406816 Z M102.204785,0 L104.533878,1.57718189 C107.443711,3.54559148 108.898627,5.36117648 108.898627,7.02393688 C108.898627,8.05093835 108.421806,9.31023708 107.468164,10.801833 C107.138054,11.3031072 106.233315,12.5257262 104.753945,14.4696901 L102.516562,15.148242 C104.66837,11.9205263 105.744275,9.6403431 105.744275,8.30769243 C105.744275,7.15843277 104.515542,5.91747389 102.058078,4.58481581 L99.6923047,3.31941123 C99.7901172,3.19714561 100.627611,2.09067521 102.204785,0 Z M68.9006628,0 L71.2297515,1.57718189 C74.1395833,3.54559148 75.5944992,5.36117648 75.5944992,7.02393688 C75.5944992,8.05093835 75.1176781,9.31023708 74.164036,10.801833 C73.8339286,11.3031072 72.9291908,12.5257262 71.4498229,14.4696901 L69.2124312,15.148242 C71.3642391,11.9205263 72.4401432,9.6403431 72.4401432,8.30769243 C72.4401432,7.15843277 71.2114116,5.91747389 68.7539485,4.58481581 L66.3881823,3.31941123 C66.4859919,3.19714561 67.3234853,2.09067521 68.9006628,0 Z M23.1991856,0 L25.5282732,1.57718189 C28.4381058,3.54559148 29.893022,5.36117648 29.893022,7.02393688 C29.893022,8.05093835 29.4162006,9.31023708 28.4625577,10.801833 C28.1324509,11.3031072 27.2277132,12.5257262 25.7483446,14.4696901 L23.5109529,15.148242 C25.6627616,11.9205263 26.738666,9.6403431 26.738666,8.30769243 C26.738666,7.15843277 25.5099344,5.91747389 23.0524713,4.58481581 L20.686704,3.31941123 C20.7845136,3.19714561 21.6220074,2.09067521 23.1991856,0 Z" id="wikipedia-wordmark-he" fill="#000000" fill-rule="nonzero"></path>
    </g>
</svg>

<svg xmlns="http://www.w3.org/2000/svg" width="120" height="28"><path fill="#000" fill-rule="nonzero" d="m82.417 6.877 1.155 17.35a10.226 10.226 0 0 1-2.219 3.502l-1.485-16.597c.538-1.565 1.387-2.983 2.549-4.255Zm31.378-6.84 4.658 3.32c.722.5 1.186 1.203 1.394 2.108.122.501.171 1.339.147 2.513l-.147 10.435a14.174 14.174 0 0 1-2.586 3.08l-.275-12.397c-.024-1.48-.587-2.58-1.687-3.3l-3.796-2.513 2.292-3.246ZM3.723.238c.085.624.14.966.165 1.027.122.416.342.624.66.624h7.483c1.858 0 3.246.232 4.163.697 1.271.66 1.907 1.852 1.907 3.576v2.366l-.184 9.353c-.648 1.357-1.589 2.537-2.824 3.54l.165-12.141c.025-2.727-.788-4.09-2.439-4.09H0A19.644 19.644 0 0 1 3.723.238ZM5.08 7.19a67.961 67.961 0 0 0-.073 3.081l-.092 7.317a11.671 11.671 0 0 1-2.843 3.723l.001-.177c.006-.864.043-4.387.11-10.57A45.19 45.19 0 0 1 5.08 7.19ZM35.853 0c.061.685.14 1.137.239 1.357.146.355.415.532.807.532h6.015A9.895 9.895 0 0 1 44.93.037v1.852h3.393L46.82 5.19h-2.035v13.186c-.685.82-1.62 1.73-2.806 2.733V5.19H31.874c1.308-1.944 2.634-3.674 3.98-5.19Zm46.032.128.147 1.137c.073.416.287.624.641.624H94.65c.917 0 1.632.391 2.146 1.174.428.66.642 1.442.642 2.347 0 4.01-1.254 7.507-3.76 10.49-1.81 2.152-4.597 3.73-8.363 4.732.416-.893.978-2.183 1.688-3.87 1.736-.306 3.374-1.02 4.914-2.146 1.651-1.198 2.476-3.252 2.476-6.162 0-2.176-.623-3.264-1.87-3.264h-14.47c.954-1.993 2.231-3.68 3.833-5.062ZM55.33.238c1.797.514 3.54 1.302 5.226 2.366 1.639 1.027 2.812 2.042 3.521 3.044.282 1.614.422 3.277.422 4.989 0 1.394-.116 3.283-.348 5.667-.208.562-.88 1.803-2.018 3.722H49.094c.734-1.1 1.388-2.2 1.963-3.3h10.691c.208-1.162.312-2.305.312-3.43 0-1.968-.275-3.943-.825-5.924-1.516-1.406-3.772-2.622-6.767-3.65-.88.759-1.32 1.713-1.32 2.862 0 .733.299 1.375.898 1.925.281.257.85.63 1.705 1.12l-1.815 2.732c-1.296-.795-2.097-1.333-2.403-1.614-.819-.734-1.228-1.547-1.228-2.44 0-1.405.63-3.013 1.889-4.823C53.282 1.932 54.327.85 55.33.238ZM102.205 0l2.329 1.577c2.91 1.969 4.365 3.784 4.365 5.447 0 1.027-.477 2.286-1.43 3.778-.33.501-1.236 1.724-2.715 3.668l-2.237.678c2.151-3.227 3.227-5.508 3.227-6.84 0-1.15-1.228-2.39-3.686-3.723l-2.366-1.266c.098-.122.936-1.228 2.513-3.319ZM68.9 0l2.329 1.577c2.91 1.969 4.364 3.784 4.364 5.447 0 1.027-.476 2.286-1.43 3.778-.33.501-1.235 1.724-2.714 3.668l-2.238.678c2.152-3.227 3.228-5.508 3.228-6.84 0-1.15-1.229-2.39-3.686-3.723l-2.366-1.266c.098-.122.935-1.228 2.513-3.319ZM23.199 0l2.33 1.577c2.91 1.969 4.364 3.784 4.364 5.447 0 1.027-.477 2.286-1.43 3.778-.33.501-1.235 1.724-2.715 3.668l-2.237.678c2.152-3.227 3.228-5.508 3.228-6.84 0-1.15-1.23-2.39-3.687-3.723l-2.365-1.266c.098-.122.935-1.228 2.512-3.319Z"/></svg>
